public/favicon.svg

<svg width="101" height="92" viewBox="0 0 101 92" fill="none" xmlns="http://www.w3.org/2000/svg">
  <g clip-path="url(#clip0_1_2)">
  <path d="M8.494 21.754C11.884 15.104 18.98 11.812 24.484 14.357L24.767 14.494L37.254 20.894C40.0165 20.1029 42.9688 20.3046 45.598 21.464L45.989 21.644L54.507 25.928L79.625 38.656C84.113 40.947 86.503 45.856 86.468 51.333L86.462 51.655L90.95 53.816L83.206 69.097L78.67 66.8C74.397 70.21 69.018 71.285 64.49 69.155L64.151 68.989L30.66 52.05C30.637 52.0601 30.6121 52.0654 30.587 52.0654C30.5619 52.0654 30.537 52.0601 30.514 52.05C27.9538 50.7516 25.9469 48.5743 24.861 45.917L24.719 45.552L12.439 39.273C12.3986 39.2248 12.3451 39.1894 12.285 39.171L12.245 39.164C6.703 36.369 5.044 28.517 8.494 21.754Z" fill="#FF5661"/>
  <path d="M14.544 65.456L35.947 76.889L22.323 90.815C22.2366 90.9216 22.1177 90.997 21.9845 91.0298C21.8513 91.0627 21.7111 91.0512 21.585 90.997H21.525L1.065 80.53C0.973984 80.4811 0.894655 80.4131 0.832492 80.3306C0.770328 80.2481 0.726811 80.153 0.704944 80.0521C0.683077 79.9511 0.683381 79.8466 0.705836 79.7458C0.72829 79.6449 0.77236 79.5502 0.835003 79.468L14.544 65.456ZM32.497 47.576L32.596 47.609L53.09 58.075C53.2431 58.1461 53.3634 58.2728 53.4265 58.4293C53.4897 58.5859 53.4909 58.7606 53.43 58.918L53.38 59.018C53.3607 59.0676 53.3322 59.113 53.296 59.152V59.225L37.446 75.437L15.982 63.992L31.857 47.79C31.9323 47.6971 32.0324 47.6276 32.1458 47.5895C32.2591 47.5515 32.3809 47.5474 32.497 47.576ZM91.047 53.986C93.781 55.365 94.204 59.89 92.063 64.125C89.921 68.359 86.013 70.67 83.279 69.291C80.544 67.911 80.121 63.387 82.262 59.151C84.404 54.929 88.313 52.606 91.047 53.986ZM33.55 20.084C34.795 20.0705 36.0298 20.3093 37.18 20.786C36.18 21.066 35.212 21.447 34.288 21.923L33.974 22.08H33.526C29.582 22.08 25.492 25.032 23.302 29.267C20.955 33.913 21.246 39.055 23.798 42.104C23.9818 43.2606 24.282 44.3957 24.694 45.492C19.673 42.443 18.281 34.954 21.633 28.372C24.173 23.23 28.965 20.084 33.55 20.084ZM63.205 16.986L84.622 28.42L76.285 36.962L54.507 25.928L63.207 16.986H63.205ZM79.574 0.656006L79.674 0.689006L100.278 11.155C100.447 11.236 100.579 11.3797 100.644 11.5557C100.709 11.7317 100.703 11.9261 100.628 12.098C100.61 12.1408 100.585 12.1808 100.556 12.217L86.11 26.92L64.658 15.498L78.935 0.870006C78.9995 0.790868 79.0822 0.728586 79.1761 0.68852C79.27 0.648454 79.3722 0.631805 79.474 0.640006L79.574 0.656006Z" fill="#FFA5AE"/>
  </g>
  <defs>
  <clipPath id="clip0_1_2">
  <rect width="101" height="92" fill="white"/>
  </clipPath>
  </defs>
  </svg>

<svg xmlns="http://www.w3.org/2000/svg" width="101" height="92">
  <path fill="#2845AE" d="M8.494 21.754c3.39-6.65 10.486-9.942 15.99-7.397l.283.137 12.487 6.4a12.293 12.293 0 0 1 8.344.57l.391.18 8.518 4.284 25.118 12.728c4.488 2.291 6.878 7.2 6.843 12.677l-.006.322 4.488 2.161-7.744 15.281L78.67 66.8c-4.273 3.41-9.652 4.485-14.18 2.355l-.339-.166L30.66 52.05a.181.181 0 0 1-.146 0 11.942 11.942 0 0 1-5.653-6.133l-.142-.365-12.28-6.279a.325.325 0 0 0-.154-.102l-.04-.007c-5.542-2.795-7.2-10.647-3.75-17.41Z"/>
  <path fill="#5493F7" d="m14.544 65.456 21.403 11.433-13.624 13.926a.63.63 0 0 1-.738.182h-.06L1.065 80.53a.714.714 0 0 1-.23-1.062l13.709-14.013Zm17.953-17.88.099.033L53.09 58.075a.665.665 0 0 1 .34.843l-.05.1a.423.423 0 0 1-.084.134v.073l-15.85 16.212-21.464-11.445L31.857 47.79a.63.63 0 0 1 .64-.215Zm58.55 6.41c2.734 1.379 3.157 5.904 1.016 10.139-2.142 4.234-6.05 6.545-8.784 5.166-2.735-1.38-3.158-5.904-1.017-10.14 2.142-4.222 6.05-6.545 8.784-5.165ZM33.55 20.084a9.22 9.22 0 0 1 3.63.702c-1 .28-1.968.661-2.892 1.137l-.314.157h-.448c-3.944 0-8.034 2.952-10.224 7.187-2.347 4.646-2.056 9.788.496 12.837a17.39 17.39 0 0 0 .896 3.388c-5.021-3.049-6.413-10.538-3.061-17.12 2.54-5.142 7.332-8.288 11.917-8.288Zm29.655-3.098L84.622 28.42l-8.337 8.542-21.778-11.034 8.7-8.942ZM79.574.656l.1.033 20.604 10.466a.723.723 0 0 1 .35.943.508.508 0 0 1-.072.119L86.11 26.92 64.658 15.498 78.935.87a.63.63 0 0 1 .539-.23l.1.016Z"/>
</svg>
